; generated by PrusaSlicer 2.6.1+win64 on 2023-12-30 at 01:38:45 UTC


;
;
; 

; external perimeters extrusion width = 0.65mm
; perimeters extrusion width = 0.65mm
; infill extrusion width = 0.65mm
; solid infill extrusion width = 0.65mm
; top infill extrusion width = 0.60mm
; support material extrusion width = 0.55mm
; first layer extrusion width = 0.65mm

; external perimeters extrusion width = 0.65mm
; perimeters extrusion width = 0.65mm
; infill extrusion width = 0.65mm
; solid infill extrusion width = 0.65mm
; top infill extrusion width = 0.60mm
; support material extrusion width = 0.55mm
; first layer extrusion width = 0.65mm

M73 P0 R138
M73 Q0 S141
M201 X1000 Y1000 Z200 E5000 ; sets maximum accelerations, mm/sec^2
M203 X200 Y200 Z12 E120 ; sets maximum feedrates, mm / sec
M204 S1250 T1250 ; sets acceleration (S) and retract acceleration (R), mm/sec^2
M205 X8.00 Y8.00 Z0.40 E4.50 ; sets the jerk limits, mm/sec
M205 S0 T0 ; sets the minimum extruding and travel feed rate, mm/sec
;TYPE:Custom
M862.3 P "MK3S" ; printer model check
M862.1 P0.6 ; nozzle diameter check
M115 U3.11.0 ; tell printer latest fw version
G90 ; use absolute coordinates
M83 ; extruder relative mode
M104 S240 ; set extruder temp
M140 S85 ; set bed temp
M190 S85 ; wait for bed temp
M109 S240 ; wait for extruder temp
G28 W ; home all without mesh bed level
G80 ; mesh bed leveling

G1 Z0.2 F720
G1 Y-3 F1000 ; go outside print area
G92 E0
G1 X60 E9 F1000 ; intro line
G1 X100 E12.5 F1000 ; intro line

G92 E0
M221 S95
G21 ; set units to millimeters
G90 ; use absolute coordinates
M83 ; use relative distances for extrusion
M900 K0.04 ; Filament gcode LA 1.5
M900 K24 ; Filament gcode LA 1.0
M107
;LAYER_CHANGE
;Z:0.2
;HEIGHT:0.2
;BEFORE_LAYER_CHANGE
G92 E0.0
;0.2


G1 E-1 F2100
G1 Z.2 F720
;AFTER_LAYER_CHANGE
;0.2
G1 Z.4
G1 X35.755 Y16.566 F10800
G1 Z.2 F720
G1 E1 F1500
M204 S800
;TYPE:Skirt/Brim
;WIDTH:0.65
G1 F1200
G1 X37.209 Y14.113 E.14394
G1 X38.628 Y12.398 E.11236
G1 X40.284 Y10.92 E.11205
G1 X42.786 Y9.318 E.14997
G1 X45.353 Y8.293 E.13953
G1 X47.446 Y7.814 E.10838
G1 X50.015 Y7.625 E.13003
G1 X194.725 Y7.625 E7.3048
G1 X197.295 Y7.814 E.13008
M73 Q0 S140
G1 X199.743 Y8.401 E.12708
G1 X201.956 Y9.318 E.12092
G1 X203.848 Y10.471 E.11184
M73 P0 R137
G1 X204.484 Y10.945 E.04004
G1 X206.33 Y12.642 E.12658
G1 X207.759 Y14.423 E.11526
G1 X209.024 Y16.647 E.12915
G1 X209.874 Y18.933 E.12311
G1 X233.014 Y89.804 E3.76335
G1 X233.283 Y91.241 E.0738
G1 X233.293 Y130.468 E1.98013
G1 X233.099 Y131.849 E.0704
G1 X209.094 Y194.635 E3.39311
G1 X207.925 Y196.76 E.12243
G1 X207.531 Y197.335 E.03519
G1 X206.112 Y199.05 E.11236
G1 X204.456 Y200.528 E.11205
G1 X201.955 Y202.13 E.14993
G1 X199.388 Y203.155 E.13953
G1 X196.868 Y203.695 E.13009
G1 X194.57 Y203.828 E.11619
G1 X50.17 Y203.828 E7.28915
G1 X47.446 Y203.634 E.13785
G1 X44.997 Y203.047 E.12712
G1 X42.731 Y202.103 E.12391
G1 X40.436 Y200.654 E.13701
G1 X38.609 Y199.029 E.12343
G1 X37.199 Y197.322 E.11176
G1 X35.726 Y194.822 E.14647
G1 X34.784 Y192.194 E.14092
G1 X34.382 Y190.085 E.10838
G1 X34.287 Y187.51 E.13007
G1 X34.287 Y23.938 E8.25693
G1 X34.382 Y21.363 E.13007
G1 X34.895 Y18.85 E.12947
G1 X35.723 Y16.65 E.11866
M204 S1000
; printing object Bottom_Unibody_Frame id:0 copy 0
;WIPE_START
G1 F8640
G1 X37.209 Y14.113 E-.67889
G1 X38.096 Y13.042 E-.32111
;WIPE_END
G1 Z.4 F720
G1 X130.259 Y55.452 F10800
G1 Z.2 F720
G1 E1 F1500
M204 S800
;TYPE:Support material
G1 F1200
G1 X125.992 Y55.461 E.21539
G1 X125.831 Y55.494 E.0083
G1 X125.69 Y55.551 E.00768
G1 X125.535 Y55.648 E.00923
G1 X125.343 Y55.837 E.0136
G1 X125.204 Y56.065 E.01348
G1 X125.093 Y56.457 E.02057
G1 X125.076 Y56.711 E.01285
G1 X125.089 Y58.193 E.07481
G1 X125.188 Y58.561 E.01924
G1 X125.335 Y58.804 E.01434
G1 X125.579 Y59.034 E.01693
G1 X125.739 Y59.122 E.00922
G1 X125.864 Y59.166 E.00669
G1 X126.078 Y59.199 E.01093
G1 X127.277 Y59.205 E.06052
G1 X127.361 Y59.236 E.00452
G1 X127.436 Y59.299 E.00494
G1 X127.496 Y59.427 E.00714
G1 X127.501 Y84.943 E1.28802
G1 X127.481 Y85.075 E.00674
G1 X127.433 Y85.159 E.00488
G1 X127.359 Y85.221 E.00487
G1 X127.183 Y85.261 E.00911
G1 X117.557 Y85.265 E.48591
G1 X117.424 Y85.245 E.00679
G1 X117.339 Y85.196 E.00495
G1 X117.276 Y85.121 E.00494
G1 X117.244 Y85.033 E.00473
G1 X117.239 Y84.953 E.00405
G1 X117.239 Y59.517 E1.28398
G1 X117.28 Y59.341 E.00912
G1 X117.342 Y59.267 E.00487
G1 X117.425 Y59.219 E.00484
G1 X117.557 Y59.199 E.00674
G1 X118.749 Y59.19 E.06017
G1 X118.909 Y59.157 E.00825
G1 X119.05 Y59.1 E.00768
G1 X119.205 Y59.002 E.00926
G1 X119.398 Y58.813 E.01364
G1 X119.536 Y58.6 E.01281
G1 X119.583 Y58.487 E.00618
G1 X119.654 Y58.171 E.01635
G1 X119.665 Y56.71 E.07375
G1 X119.648 Y56.468 E.01225
G1 X119.554 Y56.108 E.01878
G1 X119.405 Y55.847 E.01517
G1 X119.161 Y55.617 E.01693
G1 X119.014 Y55.534 E.00852
G1 X118.882 Y55.486 E.00709
G1 X118.659 Y55.452 E.01139
G1 X114.481 Y55.452 E.2109
G1 X114.481 Y50.608 E.24452
G1 X130.259 Y50.608 E.79646
G1 X130.259 Y55.361 E.23993
M204 S1000
G1 X129.115 Y55.179 F10800
M204 S800
G1 F1200
G1 X129.115 Y51.155 E.20313
G1 X128.441 Y51.155 E.03402
G1 X128.441 Y54.906 E.18935
G1 X127.766 Y54.906 E.03407
G1 X127.766 Y51.155 E.18935
G1 X127.092 Y51.155 E.03402
G1 X127.092 Y54.906 E.18935
G1 X126.417 Y54.906 E.03407
G1 X126.417 Y51.155 E.18935
G1 X125.743 Y51.155 E.03402
G1 X125.743 Y54.954 E.19177
G1 X125.44 Y55.062 E.01624
G1 X125.212 Y55.206 E.01361
G1 X125.068 Y55.327 E.00949
G1 X125.068 Y51.155 E.2106
G1 X124.394 Y51.155 E.03402
G1 X124.394 Y84.718 E1.69422
G1 X123.719 Y84.718 E.03407
G1 X123.719 Y51.155 E1.69422
G1 X123.045 Y51.155 E.03402
G1 X123.045 Y84.718 E1.69422
G1 X122.37 Y84.718 E.03407
G1 X122.37 Y51.155 E1.69422
G1 X121.696 Y51.155 E.03402
G1 X121.696 Y84.718 E1.69422
G1 X121.021 Y84.718 E.03407
G1 X121.021 Y51.155 E1.69422
G1 X120.347 Y51.155 E.03402
G1 X120.347 Y84.718 E1.69422
G1 X119.672 Y84.718 E.03407
G1 X119.672 Y59.324 E1.28186
G1 X119.528 Y59.445 E.00949
G1 X119.301 Y59.588 E.01354
G1 X118.997 Y59.697 E.0163
G1 X118.997 Y84.718 E1.26303
G1 X118.323 Y84.718 E.03402
G1 X118.323 Y59.472 E1.27439
M204 S1000
G1 X126.417 Y84.989 F10800
M204 S800
G1 F1200
G1 X126.417 Y59.746 E1.27424
G1 X126.051 Y59.745 E.01848
G1 X125.743 Y59.699 E.01572
G1 X125.743 Y84.717 E1.26288
G1 X125.068 Y84.717 E.03407
M73 Q0 S139
G1 X125.068 Y58.899 E1.30326
M204 S1000
G1 X119.672 Y55.752 F10800
M204 S800
G1 F1200
G1 X119.672 Y51.155 E.23205
G1 X118.997 Y51.155 E.03407
G1 X118.997 Y54.952 E.19167
G1 X118.684 Y54.906 E.01597
G1 X118.323 Y54.906 E.01822
G1 X118.323 Y51.155 E.18935
G1 X117.648 Y51.155 E.03407
G1 X117.648 Y54.906 E.18935
G1 X116.974 Y54.906 E.03402
G1 X116.974 Y51.155 E.18935
G1 X116.299 Y51.155 E.03407
G1 X116.299 Y54.906 E.18935
G1 X115.625 Y54.906 E.03402
G1 X115.625 Y50.882 E.20313
M204 S1000
;WIPE_START
G1 F8640
G1 X115.625 Y54.906 E-.92915
G1 X115.932 Y54.906 E-.07085
;WIPE_END
G1 Z.4 F720
G1 X140.064 Y89.523 F10800
G1 Z.2 F720
G1 E1 F1500
M204 S800
;TYPE:Perimeter
;WIDTH:0.649999
G1 F1200
G1 X140.118 Y89.649 E.00692
G1 X140.223 Y90.096 E.02318
G1 X140.25 Y90.553 E.02311
G1 X140.196 Y91.009 E.02318
G1 X140.064 Y91.448 E.02314
G1 X139.858 Y91.858 E.02316
G1 X139.583 Y92.225 E.02315
G1 X139.249 Y92.539 E.02314
G1 X138.866 Y92.791 E.02314
G1 X138.445 Y92.972 E.02313
G1 X137.999 Y93.077 E.02313
G1 X137.541 Y93.104 E.02316
G1 X137.085 Y93.05 E.02318
G1 X136.646 Y92.918 E.02314
G1 X136.237 Y92.712 E.02312
G1 X135.869 Y92.437 E.02319
G1 X135.555 Y92.103 E.02314
G1 X135.303 Y91.72 E.02314
G1 X135.122 Y91.299 E.02313
G1 X135.017 Y90.853 E.02313
G1 X134.991 Y90.395 E.02316
G1 X135.064 Y89.867 E.02691
G1 X135.176 Y89.5 E.01937
G1 X135.383 Y89.091 E.02314
G1 X135.657 Y88.723 E.02316
G1 X136.014 Y88.392 E.02457
G1 X136.374 Y88.157 E.0217
G1 X136.795 Y87.976 E.02313
G1 X137.321 Y87.867 E.02712
G1 X137.919 Y87.867 E.03019
G1 X138.445 Y87.976 E.02712
G1 X139.004 Y88.237 E.03114
G1 X139.371 Y88.511 E.02312
G1 X139.747 Y88.932 E.02849
G1 X139.937 Y89.228 E.01776
G1 X140.028 Y89.44 E.01165
M204 S1000
G1 X139.514 Y89.757 F10800
M204 S800
;TYPE:External perimeter
G1 F1200
G1 X139.619 Y90.149 E.02049
G1 X139.645 Y90.501 E.01782
G1 X139.609 Y90.852 E.01781
G1 X139.514 Y91.191 E.01777
G1 X139.36 Y91.509 E.01784
G1 X139.154 Y91.796 E.01783
G1 X138.901 Y92.042 E.01781
G1 X138.61 Y92.241 E.0178
G1 X138.288 Y92.386 E.01783
G1 X137.946 Y92.473 E.01781
G1 X137.594 Y92.499 E.01782
G1 X137.242 Y92.463 E.01786
G1 X136.903 Y92.368 E.01777
G1 X136.585 Y92.214 E.01784
G1 X136.298 Y92.008 E.01783
G1 X136.052 Y91.755 E.01781
G1 X135.853 Y91.464 E.0178
M73 P0 R136
G1 X135.708 Y91.142 E.01783
G1 X135.622 Y90.8 E.0178
G1 X135.595 Y90.448 E.01782
G1 X135.65 Y90.024 E.02158
G1 X135.853 Y89.485 E.02907
G1 X136.086 Y89.152 E.02052
G1 X136.363 Y88.889 E.01928
G1 X136.631 Y88.707 E.01635
G1 X136.952 Y88.562 E.01778
G1 X137.321 Y88.474 E.01915
G1 X137.919 Y88.474 E.03019
G1 X138.337 Y88.581 E.02178
G1 X138.655 Y88.734 E.01781
G1 X138.942 Y88.94 E.01783
G1 X139.25 Y89.281 E.0232
G1 X139.47 Y89.678 E.02291
M204 S1000
G1 X139.915 Y89.816 F10800
;WIPE_START
G1 F8640
G1 X139.619 Y90.149 E-.11407
G1 X139.645 Y90.501 E-.0815
G1 X139.609 Y90.852 E-.08147
G1 X139.514 Y91.191 E-.08129
G1 X139.36 Y91.509 E-.08158
G1 X139.154 Y91.796 E-.08157
G1 X138.901 Y92.042 E-.08148
G1 X138.61 Y92.241 E-.0814
G1 X138.288 Y92.386 E-.08154
G1 X137.946 Y92.473 E-.08148
G1 X137.594 Y92.499 E-.0815
G1 X137.288 Y92.468 E-.07112
;WIPE_END
G1 Z.4 F720
G1 X137.209 Y118.39 F10800
G1 Z.2 F720
G1 E1 F1500
M204 S800
;TYPE:Perimeter
G1 F1200
G1 X137.321 Y118.367 E.00577
G1 X137.919 Y118.367 E.03019
G1 X138.445 Y118.476 E.02712
G1 X139.004 Y118.737 E.03114
G1 X139.371 Y119.011 E.02312
G1 X139.685 Y119.345 E.02314
G1 X139.937 Y119.728 E.02314
G1 X140.118 Y120.149 E.02313
G1 X140.223 Y120.596 E.02318
G1 X140.25 Y121.053 E.02311
G1 X140.196 Y121.509 E.02318
G1 X140.064 Y121.948 E.02314
G1 X139.858 Y122.358 E.02316
G1 X139.583 Y122.725 E.02315
G1 X139.249 Y123.039 E.02314
G1 X138.866 Y123.291 E.02314
G1 X138.445 Y123.472 E.02313
G1 X137.999 Y123.577 E.02313
G1 X137.669 Y123.606 E.01672
G1 X137.156 Y123.566 E.02597
G1 X136.663 Y123.426 E.02587
G1 X136.237 Y123.212 E.02406
G1 X135.869 Y122.937 E.02319
G1 X135.555 Y122.603 E.02314
G1 X135.303 Y122.22 E.02314
G1 X135.122 Y121.799 E.02313
G1 X135.017 Y121.353 E.02313
G1 X134.991 Y120.895 E.02316
G1 X135.044 Y120.439 E.02317
G1 X135.176 Y120 E.02314
G1 X135.383 Y119.591 E.02314
G1 X135.657 Y119.223 E.02316
G1 X135.991 Y118.909 E.02314
G1 X136.374 Y118.657 E.02314
G1 X136.795 Y118.476 E.02313
G1 X137.121 Y118.409 E.0168
M204 S1000
G1 X137.321 Y118.974 F10800
M204 S800
;TYPE:External perimeter
G1 F1200
G1 X137.919 Y118.974 E.03019
G1 X138.337 Y119.081 E.02178
G1 X138.655 Y119.234 E.01781
G1 X138.942 Y119.44 E.01783
G1 X139.188 Y119.693 E.01781
G1 X139.387 Y119.985 E.01784
G1 X139.532 Y120.306 E.01778
G1 X139.619 Y120.649 E.01786
G1 X139.645 Y121.001 E.01782
G1 X139.609 Y121.352 E.01781
G1 X139.514 Y121.691 E.01777
G1 X139.25 Y122.168 E.02752
G1 X138.901 Y122.542 E.02582
G1 X138.61 Y122.741 E.0178
G1 X138.288 Y122.886 E.01783
G1 X137.946 Y122.973 E.01781
G1 X137.636 Y122.999 E.0157
G1 X137.242 Y122.963 E.01997
G1 X136.903 Y122.868 E.01777
G1 X136.585 Y122.714 E.01784
G1 X136.298 Y122.508 E.01783
G1 X136.052 Y122.255 E.01781
G1 X135.853 Y121.964 E.0178
G1 X135.708 Y121.642 E.01783
G1 X135.622 Y121.3 E.0178
G1 X135.595 Y120.948 E.01782
G1 X135.631 Y120.596 E.01786
G1 X135.727 Y120.257 E.01779
G1 X135.88 Y119.939 E.01781
G1 X136.086 Y119.652 E.01783
G1 X136.339 Y119.406 E.01781
G1 X136.631 Y119.207 E.01784
G1 X136.952 Y119.062 E.01778
G1 X137.233 Y118.995 E.01458
M204 S1000
G1 X137.562 Y118.427 F10800
;WIPE_START
G1 F8640
G1 X137.919 Y118.974 E-.15847
G1 X138.337 Y119.081 E-.09963
G1 X138.655 Y119.234 E-.08148
G1 X138.942 Y119.44 E-.08157
G1 X139.188 Y119.693 E-.08148
G1 X139.387 Y119.985 E-.08159
G1 X139.532 Y120.306 E-.08133
G1 X139.619 Y120.649 E-.08171
G1 X139.645 Y121.001 E-.0815
G1 X139.609 Y121.352 E-.08147
G1 X139.514 Y121.691 E-.08129
G1 X139.496 Y121.723 E-.00848
;WIPE_END
G1 Z.4 F720
G1 X133.381 Y142.551 F10800
G1 Z.2 F720
G1 E1 F1500
M204 S800
;TYPE:Perimeter
G1 F1200
G1 X133.754 Y142.737 E.02104
G1 X134.121 Y143.011 E.02312
G1 X134.435 Y143.345 E.02314
G1 X134.687 Y143.728 E.02314
G1 X134.868 Y144.149 E.02313
G1 X134.973 Y144.596 E.02318
G1 X135 Y145.053 E.02311
G1 X134.946 Y145.509 E.02318
G1 X134.814 Y145.948 E.02314
G1 X134.608 Y146.358 E.02316
G1 X134.333 Y146.725 E.02315
G1 X133.999 Y147.039 E.02314
G1 X133.616 Y147.291 E.02314
G1 X133.195 Y147.472 E.02313
G1 X132.749 Y147.577 E.02313
G1 X132.291 Y147.604 E.02316
G1 X131.835 Y147.55 E.02318
G1 X131.396 Y147.418 E.02314
G1 X130.987 Y147.212 E.02312
G1 X130.619 Y146.937 E.02319
G1 X130.305 Y146.603 E.02314
G1 X130.053 Y146.22 E.02314
G1 X129.872 Y145.799 E.02313
G1 X129.767 Y145.353 E.02313
G1 X129.741 Y144.895 E.02316
G1 X129.794 Y144.439 E.02317
G1 X129.926 Y144 E.02314
G1 X130.133 Y143.591 E.02314
G1 X130.407 Y143.223 E.02316
G1 X130.741 Y142.909 E.02314
G1 X131.124 Y142.657 E.02314
G1 X131.545 Y142.476 E.02313
G1 X132.071 Y142.367 E.02712
G1 X132.809 Y142.378 E.03726
G1 X133.3 Y142.513 E.0257
M204 S1000
G1 X133.087 Y143.081 F10800
M204 S800
;TYPE:External perimeter
G1 F1200
G1 X133.405 Y143.234 E.01781
G1 X133.692 Y143.44 E.01783
G1 X133.938 Y143.693 E.01781
G1 X134.137 Y143.985 E.01784
G1 X134.282 Y144.306 E.01778
G1 X134.369 Y144.649 E.01786
G1 X134.395 Y145.001 E.01782
G1 X134.359 Y145.352 E.01781
G1 X134.264 Y145.691 E.01777
G1 X134.11 Y146.009 E.01784
G1 X133.904 Y146.296 E.01783
G1 X133.651 Y146.542 E.01781
G1 X133.36 Y146.741 E.0178
G1 X133.038 Y146.886 E.01783
G1 X132.696 Y146.973 E.01781
G1 X132.344 Y146.999 E.01782
G1 X131.992 Y146.963 E.01786
G1 X131.653 Y146.868 E.01777
G1 X131.335 Y146.714 E.01784
G1 X131.048 Y146.508 E.01783
G1 X130.802 Y146.255 E.01781
G1 X130.603 Y145.964 E.0178
G1 X130.458 Y145.642 E.01783
G1 X130.372 Y145.3 E.0178
G1 X130.345 Y144.948 E.01782
G1 X130.381 Y144.596 E.01786
G1 X130.477 Y144.257 E.01779
G1 X130.63 Y143.939 E.01781
G1 X130.836 Y143.652 E.01783
G1 X131.089 Y143.406 E.01781
G1 X131.381 Y143.207 E.01784
G1 X131.702 Y143.062 E.01778
G1 X132.146 Y142.974 E.02285
G1 X132.716 Y142.978 E.02877
G1 X133.001 Y143.057 E.01493
M204 S1000
G1 X133.355 Y142.85 F10800
;WIPE_START
G1 F8640
G1 X133.405 Y143.234 E-.10184
G1 X133.692 Y143.44 E-.08157
G1 X133.938 Y143.693 E-.08148
G1 X134.137 Y143.985 E-.08159
G1 X134.282 Y144.306 E-.08133
G1 X134.369 Y144.649 E-.08171
G1 X134.395 Y145.001 E-.0815
G1 X134.359 Y145.352 E-.08147
G1 X134.264 Y145.691 E-.08129
G1 X134.11 Y146.009 E-.08158
G1 X133.904 Y146.296 E-.08157
G1 X133.651 Y146.542 E-.08148
G1 X133.645 Y146.546 E-.00159
;WIPE_END
G1 Z.4 F720
G1 X113.261 Y142.506 F10800
G1 Z.2 F720
G1 E1 F1500
M204 S800
;TYPE:Perimeter
G1 F1200
G1 X113.344 Y142.53 E.00436
G1 X113.754 Y142.737 E.02318
G1 X114.121 Y143.011 E.02312
G1 X114.435 Y143.345 E.02314
G1 X114.687 Y143.728 E.02314
G1 X114.868 Y144.149 E.02313
G1 X114.973 Y144.596 E.02318
G1 X115 Y145.053 E.02311
G1 X114.946 Y145.509 E.02318
G1 X114.814 Y145.948 E.02314
G1 X114.608 Y146.358 E.02316
G1 X114.333 Y146.725 E.02315
G1 X113.999 Y147.039 E.02314
G1 X113.616 Y147.291 E.02314
G1 X113.195 Y147.472 E.02313
G1 X112.749 Y147.577 E.02313
G1 X112.291 Y147.604 E.02316
G1 X111.835 Y147.55 E.02318
G1 X111.396 Y147.418 E.02314
G1 X110.987 Y147.212 E.02312
G1 X110.619 Y146.937 E.02319
G1 X110.305 Y146.603 E.02314
G1 X110.053 Y146.22 E.02314
G1 X109.872 Y145.799 E.02313
G1 X109.767 Y145.353 E.02313
G1 X109.741 Y144.895 E.02316
G1 X109.794 Y144.439 E.02317
G1 X109.926 Y144 E.02314
G1 X110.133 Y143.591 E.02314
G1 X110.407 Y143.223 E.02316
G1 X110.741 Y142.909 E.02314
G1 X111.124 Y142.657 E.02314
G1 X111.545 Y142.476 E.02313
G1 X112.071 Y142.367 E.02712
G1 X112.669 Y142.367 E.03019
G1 X112.844 Y142.384 E.00888
G1 X113.175 Y142.481 E.01741
M204 S1000
G1 X113.087 Y143.081 F10800
M204 S800
;TYPE:External perimeter
G1 F1200
G1 X113.405 Y143.234 E.01781
G1 X113.692 Y143.44 E.01783
G1 X113.938 Y143.693 E.01781
